X:1
T:GB/7a/40 The Bold Fisherman Version 1 of 3
T:GB/7a/40 The Bold Fisherman Version 1 of 3
T:Mr. Spooner c. 70), Midhurst Workhouse XII. 08 F.W. J(ekyll) & G.S.K. B(utterworth)
T:Transcribed by Simon Furey and Lewis Jones
C:Transcribed by Simon Furey and Lewis Jones
L:1/8
M:5/4
K:G
V:1 treble 
V:1
 D2 | G2 G2 E2 F2 G2 | A2 A2 D4 D2 | G2 G2 A2 G2 A2 |[M:3/4] B4 Bc |[M:5/4] d2 B2 A2 G2 A2 | %6
 B2 B2 E2 F2 G2 | A2 A2 D2 F2 A2 | G4- G4 D2 | G2 G2 A2 G2 A2 |[M:3/4] B4 Bc | %11
[M:5/4] d2 B2 A2 G2 A2 | B2 B2 E2 F2 G2 | A2 A2 D2 F2 A2 | G4- G4 |] %15

